Dominus_Dark_Funeral/22/places/folder-unlocked.svg

<svg xmlns="http://www.w3.org/2000/svg" width="24" height="24" viewBox="0 0 12.7 12.7"><defs><linearGradient id="a"><stop offset="0" stop-color="#216778"/><stop offset="1" stop-color="#5fbcd3"/></linearGradient></defs><path d="M6.285.604h-.333c-.223.056-.575.148-.76.241a2.595 2.595 0 0 0-1.224 1.186c-.203.427-.185.371-.203 2.243v1.668h.852V4.367c0-1.743 0-1.743.148-2.04.112-.222.408-.5.63-.63l.371-.166c.186-.056.241-.074.575-.074.334 0 .408 0 .593.074.519.185.927.556 1.075 1 .056.15.056.242.074.631 0 .426 0 .445.074.482.204.185.223.204.112.296-.186.149-.186.167-.186.371 0 .148 0 .186.056.241.074.056.093.056.37.056.279 0 .297 0 .371-.056l.056-.074v-.797c0-.927-.019-1.13-.148-1.483a2.113 2.113 0 0 0-.482-.741A2.52 2.52 0 0 0 6.304.623zM4.673 6.072c-1.28 0-1.372 0-1.427.037a.37.37 0 0 0-.149.13c-.037.092-.037.222-.037 2.836 0 3.058-.018 2.854.186 2.965l.092.056h3.003c2.966 0 3.021 0 3.114-.056a.482.482 0 0 0 .13-.13c.055-.074.055-.13.055-2.817 0-2.984 0-2.817-.148-2.965l-.074-.056zM6.34 7.351c.093 0 .185 0 .297.055.259.112.426.427.389.705a.741.741 0 0 1-.223.445l-.092.092v.556c0 .65 0 .686-.167.797a.334.334 0 0 1-.186.056.334.334 0 0 1-.333-.185c-.037-.056-.037-.112-.037-.65v-.574l-.111-.092a.704.704 0 0 1-.056-.964.667.667 0 0 1 .5-.241z" fill="#e6e6e6"/></svg>

<?xml version="1.0" encoding="UTF-8" standalone="no"?>
<svg
   xmlns:dc="http://purl.org/dc/elements/1.1/"
   xmlns:cc="http://creativecommons.org/ns#"
   xmlns:rdf="http://www.w3.org/1999/02/22-rdf-syntax-ns#"
   xmlns:svg="http://www.w3.org/2000/svg"
   xmlns="http://www.w3.org/2000/svg"
   xmlns:sodipodi="http://sodipodi.sourceforge.net/DTD/sodipodi-0.dtd"
   xmlns:inkscape="http://www.inkscape.org/namespaces/inkscape"
   width="24"
   height="24"
   viewBox="0 0 12.7 12.7"
   version="1.1"
   id="svg11"
   sodipodi:docname="folder-unlocked.svg"
   inkscape:version="0.92.4 (5da689c313, 2019-01-14)">
  <metadata
     id="metadata15">
    <rdf:RDF>
      <cc:Work
         rdf:about="">
        <dc:format>image/svg+xml</dc:format>
        <dc:type
           rdf:resource="http://purl.org/dc/dcmitype/StillImage" />
        <dc:title></dc:title>
      </cc:Work>
    </rdf:RDF>
  </metadata>
  <sodipodi:namedview
     pagecolor="#ffffff"
     bordercolor="#666666"
     borderopacity="1"
     objecttolerance="10"
     gridtolerance="10"
     guidetolerance="10"
     inkscape:pageopacity="0"
     inkscape:pageshadow="2"
     inkscape:window-width="1112"
     inkscape:window-height="480"
     id="namedview13"
     showgrid="false"
     inkscape:zoom="9.8333333"
     inkscape:cx="1.0677966"
     inkscape:cy="12"
     inkscape:window-x="0"
     inkscape:window-y="25"
     inkscape:window-maximized="0"
     inkscape:current-layer="svg11" />
  <defs
     id="defs7">
    <linearGradient
       id="a">
      <stop
         offset="0"
         stop-color="#216778"
         id="stop2" />
      <stop
         offset="1"
         stop-color="#5fbcd3"
         id="stop4" />
    </linearGradient>
  </defs>
  <path
     d="M 6.285,0.604 H 5.952 C 5.729,0.66 5.377,0.752 5.192,0.845 A 2.595,2.595 0 0 0 3.968,2.031 C 3.765,2.458 3.783,2.402 3.765,4.274 V 5.942 H 4.617 V 4.367 c 0,-1.743 0,-1.743 0.148,-2.04 0.112,-0.222 0.408,-0.5 0.63,-0.63 L 5.766,1.531 C 5.952,1.475 6.007,1.457 6.341,1.457 c 0.334,0 0.408,0 0.593,0.074 0.519,0.185 0.927,0.556 1.075,1 0.056,0.15 0.056,0.242 0.074,0.631 0,0.426 0,0.445 0.074,0.482 C 8.361,3.829 8.38,3.848 8.269,3.94 8.083,4.089 8.083,4.107 8.083,4.311 c 0,0.148 0,0.186 0.056,0.241 0.074,0.056 0.093,0.056 0.37,0.056 0.279,0 0.297,0 0.371,-0.056 L 8.936,4.478 V 3.681 C 8.936,2.754 8.917,2.551 8.788,2.198 A 2.113,2.113 0 0 0 8.306,1.457 2.52,2.52 0 0 0 6.304,0.623 Z M 4.673,6.072 c -1.28,0 -1.372,0 -1.427,0.037 A 0.37,0.37 0 0 0 3.097,6.239 C 3.06,6.331 3.06,6.461 3.06,9.075 c 0,3.058 -0.018,2.854 0.186,2.965 l 0.092,0.056 h 3.003 c 2.966,0 3.021,0 3.114,-0.056 a 0.482,0.482 0 0 0 0.13,-0.13 C 9.64,11.836 9.64,11.78 9.64,9.093 9.64,6.109 9.64,6.276 9.492,6.128 L 9.418,6.072 Z M 6.34,7.351 c 0.093,0 0.185,0 0.297,0.055 0.259,0.112 0.426,0.427 0.389,0.705 A 0.741,0.741 0 0 1 6.803,8.556 L 6.711,8.648 v 0.556 c 0,0.65 0,0.686 -0.167,0.797 A 0.334,0.334 0 0 1 6.358,10.057 0.334,0.334 0 0 1 6.025,9.872 C 5.988,9.816 5.988,9.76 5.988,9.222 V 8.648 L 5.877,8.556 A 0.704,0.704 0 0 1 5.821,7.592 0.667,0.667 0 0 1 6.321,7.351 Z"
     id="path9"
     inkscape:connector-curvature="0"
     style="fill:#e6e6e6" />
</svg>
